icons/black/quebec511.svg

<?xml version="1.0" encoding="UTF-8"?><svg id="a" xmlns="http://www.w3.org/2000/svg" viewBox="0 0 48 48"><defs><style>.b{fill:none;stroke:#000;stroke-linecap:round;stroke-linejoin:round;}</style></defs><path class="b" d="M30.0328,18.2745h2.8224M30.0328,12.6297h2.8224M30.0328,15.4521h1.8345M30.0328,12.6297v5.6448M13.5925,18.2745l-1.8345-1.8346M9.8528,16.3693c0,1.0584.8467,1.9051,1.8346,1.9051,1.0584,0,1.9051-.8467,1.9051-1.9051v-1.9051c0-1.0584-.8467-1.9051-1.9051-1.9051s-1.8345.8467-1.8345,1.9051v1.9051ZM15.1448,12.6297v3.7397c0,1.0584.8467,1.9051,1.8345,1.9051s1.8346-.8467,1.8346-1.9051v-3.7397"/><path class="b" d="M21.9185,11.1479l.9878-.3528M20.4367,18.2745h2.8224M20.4367,12.6297h2.8224M20.4367,15.4521h1.8346M20.4367,12.6297v5.6448M38.1472,16.4399c0,1.0584-.8467,1.9051-1.9051,1.9051s-1.9051-.8467-1.9051-1.9051v-1.9051c0-1.0584.8467-1.9051,1.9051-1.9051s1.8345.8467,1.8345,1.9051"/><path class="b" d="M9.5,20.8146h29"/><path class="b" d="M9.8528,35.9976c1.0351.8622,1.8973,1.2073,4.1397,1.2073h.5172c2.4145,0,4.4848-2.0695,4.4848-4.4848s-2.0702-4.4841-4.4848-4.4841h-4.6569v-4.8291h9.1417"/><path class="b" d="M21.5304,37.0327h6.8993M21.5304,25.1314l3.4497-1.8973v13.7986M31.2479,37.0327h6.8993M31.2479,25.1314l3.4497-1.8973v13.7986"/><path class="b" d="M27.1328,15.4521c.7891,0,1.4288.6397,1.4288,1.4288s-.6397,1.4288-1.4288,1.4288h-2.3576v-5.7153h2.3576c.7891,0,1.4288.6397,1.4288,1.4288s-.6397,1.4288-1.4288,1.4288h0Z"/><line class="b" x1="27.1328" y1="15.4521" x2="24.7752" y2="15.4521"/><rect class="b" x="6.5" y="4.5" width="35" height="39" rx="4" ry="4"/></svg>

<svg xmlns="http://www.w3.org/2000/svg" viewBox="0 0 48 48"><defs><style>.a{fill:none;stroke:#000;stroke-linecap:round;stroke-linejoin:round;}</style></defs><path class="a" d="M30.0417,18.266h2.8266m-2.8266-5.653h2.8266M30.0417,15.44H31.879M30.0417,12.613v5.653m-16.4646,0L11.74,16.4288M9.832,16.3581a1.8729,1.8729,0,1,0,3.7451,0V14.45a1.9,1.9,0,0,0-1.9079-1.9079A1.8412,1.8412,0,0,0,9.832,14.45Zm5.3-3.7451v3.7451a1.8386,1.8386,0,1,0,3.6745,0V12.613"/><path class="a" d="M21.9154,11.129l.9893-.3533m-2.4732,7.49H23.258m-2.8265-5.653H23.258M20.4315,15.44h1.8372M20.4315,12.613v5.653M38.168,16.4288a1.9079,1.9079,0,0,1-3.8158,0V14.5209A1.9,1.9,0,0,1,36.26,12.613a1.8413,1.8413,0,0,1,1.8373,1.9079"/><path class="a" d="M9.4787,20.81H38.5213"/><path class="a" d="M9.832,36.0152c1.0366.8636,1.9,1.2091,4.1458,1.2091h.518a4.491,4.491,0,1,0,0-8.982H9.832V23.4061h9.1551"/><path class="a" d="M21.5268,37.0519h6.9095M21.5268,25.1331l3.4547-1.9v13.819m6.277,0H38.168M31.2585,25.1331l3.4548-1.9v13.819"/><path class="a" d="M27.1374,15.44a1.431,1.431,0,0,1,0,2.8619H24.7763V12.5776h2.3611a1.431,1.431,0,0,1,0,2.8619Z"/><line class="a" x1="27.1374" y1="15.4395" x2="24.7763" y2="15.4395"/><rect class="a" x="6.5" y="4.5" width="35" height="39" rx="2"/></svg>
